src/assets/Imgs/dark/guild.svg

<svg width="54" height="54" viewBox="0 0 54 54" fill="none" xmlns="http://www.w3.org/2000/svg">
<g id="Group 886">
<circle id="Ellipse 1031" cx="27" cy="27" r="27" fill="url(#paint0_linear_192_3309)"/>
<g id="trade">
<g id="vuesax/bold/trade">
<g id="trade_2">
<path id="Vector" d="M30 30.5C30 34.09 27.09 37 23.5 37C19.91 37 17 34.09 17 30.5C17 26.91 19.91 24 23.5 24C23.67 24 23.85 24.01 24.02 24.02C27.19 24.27 29.73 26.81 29.98 29.98C29.99 30.15 30 30.33 30 30.5Z" fill="url(#paint1_linear_192_3309)"/>
<path id="Vector_2" d="M37.0001 23.5C37.0001 26.76 34.6001 29.45 31.4801 29.92V29.86C31.1701 25.98 28.0201 22.83 24.1101 22.52H24.0801C24.5501 19.4 27.2401 17 30.5001 17C34.0901 17 37.0001 19.91 37.0001 23.5Z" fill="url(#paint2_linear_192_3309)"/>
<path id="Vector_3" d="M20.59 17H18C17.45 17 17 17.45 17 18V20.59C17 21.48 18.08 21.93 18.71 21.3L21.3 18.71C21.92 18.08 21.48 17 20.59 17Z" fill="url(#paint3_linear_192_3309)"/>
<path id="Vector_4" d="M33.4097 37H35.9997C36.5497 37 36.9997 36.55 36.9997 36V33.41C36.9997 32.52 35.9197 32.07 35.2897 32.7L32.6997 35.29C32.0797 35.92 32.5197 37 33.4097 37Z" fill="url(#paint4_linear_192_3309)"/>
</g>
</g>
</g>
</g>
<defs>
<linearGradient id="paint0_linear_192_3309" x1="27" y1="0" x2="27" y2="121" gradientUnits="userSpaceOnUse">
<stop stop-color="#14FF00" stop-opacity="0.3"/>
<stop offset="1" stop-color="#5200FF" stop-opacity="0.3"/>
</linearGradient>
<linearGradient id="paint1_linear_192_3309" x1="23.5" y1="24" x2="23" y2="36" gradientUnits="userSpaceOnUse">
<stop stop-color="#14FF00"/>
<stop offset="1" stop-color="#1F9E14"/>
</linearGradient>
<linearGradient id="paint2_linear_192_3309" x1="40.5" y1="7" x2="24" y2="30" gradientUnits="userSpaceOnUse">
<stop stop-color="#14FF00"/>
<stop offset="1" stop-color="#051703"/>
</linearGradient>
<linearGradient id="paint3_linear_192_3309" x1="19.2948" y1="17" x2="19.2948" y2="21.594" gradientUnits="userSpaceOnUse">
<stop stop-color="#14FF00"/>
<stop offset="1" stop-color="#1F9E14"/>
</linearGradient>
<linearGradient id="paint4_linear_192_3309" x1="34.7049" y1="32.406" x2="34.7049" y2="37" gradientUnits="userSpaceOnUse">
<stop stop-color="#14FF00"/>
<stop offset="1" stop-color="#1F9E14"/>
</linearGradient>
</defs>
</svg>

<svg fill="none" height="54" viewBox="0 0 54 54" width="54" xmlns="http://www.w3.org/2000/svg" xmlns:xlink="http://www.w3.org/1999/xlink"><linearGradient id="a" gradientUnits="userSpaceOnUse" x1="27" x2="27" y1="0" y2="121"><stop offset="0" stop-color="#14ff00" stop-opacity=".3"/><stop offset="1" stop-color="#5200ff" stop-opacity=".3"/></linearGradient><linearGradient id="b"><stop offset="0" stop-color="#14ff00"/><stop offset="1" stop-color="#1f9e14"/></linearGradient><linearGradient id="c" gradientUnits="userSpaceOnUse" x1="23.5" x2="23" xlink:href="#b" y1="24" y2="36"/><linearGradient id="d" gradientUnits="userSpaceOnUse" x1="40.5" x2="24" y1="7" y2="30"><stop offset="0" stop-color="#14ff00"/><stop offset="1" stop-color="#051703"/></linearGradient><linearGradient id="e" gradientUnits="userSpaceOnUse" x1="19.2948" x2="19.2948" xlink:href="#b" y1="17" y2="21.594"/><linearGradient id="f" gradientUnits="userSpaceOnUse" x1="34.7049" x2="34.7049" xlink:href="#b" y1="32.406" y2="37"/><circle cx="27" cy="27" fill="url(#a)" r="27"/><path d="m30 30.5c0 3.59-2.91 6.5-6.5 6.5s-6.5-2.91-6.5-6.5 2.91-6.5 6.5-6.5c.17 0 .35.01.52.02 3.17.25 5.71 2.79 5.96 5.96.01.17.02.35.02.52z" fill="url(#c)"/><path d="m37.0001 23.5c0 3.26-2.4 5.95-5.52 6.42v-.06c-.31-3.88-3.46-7.03-7.37-7.34h-.03c.47-3.12 3.16-5.52 6.42-5.52 3.59 0 6.5 2.91 6.5 6.5z" fill="url(#d)"/><path d="m20.59 17h-2.59c-.55 0-1 .45-1 1v2.59c0 .89 1.08 1.34 1.71.71l2.59-2.59c.62-.63.18-1.71-.71-1.71z" fill="url(#e)"/><path d="m33.4097 37h2.59c.55 0 1-.45 1-1v-2.59c0-.89-1.08-1.34-1.71-.71l-2.59 2.59c-.62.63-.18 1.71.71 1.71z" fill="url(#f)"/></svg>
